images/icon-mail.svg

<svg height="16" viewBox="0 0 18 16" width="18" xmlns="http://www.w3.org/2000/svg"><path d="m16.3929452.6689686h-14.78576712c-.4419863 0-.82035616.16684827-1.13510959.50067558-.31475342.33382731-.47206849.73512619-.47206849 1.20389662v11.5909864c0 .4687704.15731507.8698077.47206849 1.203635.31475343.3340889.69312329.5008064 1.13510959.5008064h14.78576712c.441863 0 .8202329-.1667175 1.1349863-.5008064.3148767-.3338273.4720685-.7349954.4720685-1.203635v-11.5909864c0-.46877043-.1571918-.87006931-.4720685-1.20389662-.3147534-.33382731-.6931233-.50067558-1.1349863-.50067558zm-.3930571 12.8158754c0 .0767897-.028863.1432464-.0865889.1993703-.057726.0561239-.1260798.084077-.2049496.084077h-13.41669925c-.07898164 0-.14733545-.0279531-.20506141-.084077s-.08658894-.1225806-.08658894-.1993703v-6.80567248c.19443357.21263988.40408173.40765947.62894449.58484124 1.62852097 1.21699621 2.92276835 2.21537034 3.88285401 2.99523114.30988549.2540802.56204502.4519277.75647859.5937602.19443357.1418324.45722094.28497.78836211.4297392.33114118.1447691.64259288.2169905.93424323.2169905h.00917351.00906163c.29153848 0 .60321392-.0722214.93424323-.2169905.331253-.1447692.5941523-.2879068.7885859-.4297392.1943216-.1418325.4465931-.33968.7564785-.5937602.9600857-.7798608 2.2542212-1.77823493 3.8827422-2.99523114.2248627-.17718177.4346228-.37220136.6288326-.58484124v6.80567248zm-.1403472-10.33965154v.096841c0 .34629305-.1402924.73236007-.4209883 1.15787684-.280696.42562484-.5842923.76467643-.9102331 1.01704667-1.1654719.89242874-2.3759663 1.82279407-3.632039 2.79142024-.0362404.02929008-.1419599.11597142-.3170475.25971978-.1749764.14385645-.3139348.25409955-.4166529.33029699-.102718.0764136-.23689625.16882326-.40297933.27733706-.16608307.1085138-.31849264.18935875-.45733988.24210251-.13884723.05274376-.26868995.07911564-.38941701.07911564h-.0090045-.00911567c-.12072706 0-.25045862-.02637188-.38941702-.07911564-.13884723-.05274376-.29136796-.13358871-.45733987-.24210251s-.30037248-.20092346-.40297936-.27733706c-.10260688-.07619744-.24156527-.18644054-.41665285-.33029699-.17508759-.14374836-.28080713-.2304297-.31704748-.25971978-1.25585042-.96862617-2.46645597-1.8989915-3.63181668-2.79142024-.88766624-.68091329-1.33144378-1.5145457-1.33144378-2.50078915 0-.07630552.02868102-.1423433.08604304-.19811334.05736203-.05577005.12528489-.08365507.2037686-.08365507h13.33211329c.0482464.02637188.0904897.03372142.1268412.02204862.0362404-.01188896.0633651.01015966.0813741.0659297.0181202.05577005.034684.08214192.0498027.07922372.0151186-.00291819.0242343.03372142.0272358.11013503.0027792.07630552.0043355.11467444.0043355.11467444z" fill-rule="evenodd"/></svg>

<?xml version="1.0" encoding="UTF-8" standalone="no"?>
<svg width="18px" height="16px" viewBox="0 0 18 16" version="1.1" xmlns="http://www.w3.org/2000/svg" xmlns:xlink="http://www.w3.org/1999/xlink">
    <!-- Generator: Sketch 43.1 (39012) - http://www.bohemiancoding.com/sketch -->
    <title>icon-mail</title>
    <desc>Created with Sketch.</desc>
    <defs></defs>
    <g id="Page-1" stroke="none" stroke-width="1" fill="none" fill-rule="evenodd">
        <path d="M16.3929452,0.668968596 L1.60717808,0.668968596 C1.16519178,0.668968596 0.786821918,0.835816872 0.472068493,1.16964418 C0.157315068,1.50347149 0,1.90477037 0,2.3735408 L0,13.9645272 C0,14.4332976 0.157315068,14.8343349 0.472068493,15.1681622 C0.786821918,15.5022511 1.16519178,15.6689686 1.60717808,15.6689686 L16.3929452,15.6689686 C16.8348082,15.6689686 17.2131781,15.5022511 17.5279315,15.1681622 C17.8428082,14.8343349 18,14.4331668 18,13.9645272 L18,2.3735408 C18,1.90477037 17.8428082,1.50347149 17.5279315,1.16964418 C17.2131781,0.835816872 16.8348082,0.668968596 16.3929452,0.668968596 Z M15.9998881,13.484844 C15.9998881,13.5616337 15.9710251,13.6280904 15.9132992,13.6842143 C15.8555732,13.7403382 15.7872194,13.7682913 15.7083496,13.7682913 L2.29165035,13.7682913 C2.21266871,13.7682913 2.1443149,13.7403382 2.08658894,13.6842143 C2.02886298,13.6280904 2,13.5616337 2,13.484844 L2,6.67917152 C2.19443357,6.8918114 2.40408173,7.08683099 2.62894449,7.26401276 C4.25746546,8.48100897 5.55171284,9.4793831 6.5117985,10.2592439 C6.82168399,10.5133241 7.07384352,10.7111716 7.26827709,10.8530041 C7.46271066,10.9948365 7.72549803,11.1379741 8.0566392,11.2827433 C8.38778038,11.4275124 8.69923208,11.4997338 8.99088243,11.4997338 L9.00005594,11.4997338 L9.00911757,11.4997338 C9.30065605,11.4997338 9.61233149,11.4275124 9.9433608,11.2827433 C10.2746138,11.1379741 10.5375131,10.9948365 10.7319467,10.8530041 C10.9262683,10.7111716 11.1785398,10.5133241 11.4884252,10.2592439 C12.4485109,9.4793831 13.7426464,8.48100897 15.3711674,7.26401276 C15.5960301,7.08683099 15.8057902,6.8918114 16,6.67917152 L16,13.484844 L15.9998881,13.484844 Z M15.8595409,3.14519246 L15.8595409,3.24203346 C15.8595409,3.58832651 15.7192485,3.97439353 15.4385526,4.3999103 C15.1578566,4.82553514 14.8542603,5.16458673 14.5283195,5.41695697 C13.3628476,6.30938571 12.1523532,7.23975104 10.8962805,8.20837721 C10.8600401,8.23766729 10.7543206,8.32434863 10.579233,8.46809699 C10.4042566,8.61195344 10.2652982,8.72219654 10.1625801,8.79839398 C10.0598621,8.87480758 9.92568385,8.96721724 9.75960077,9.07573104 C9.5935177,9.18424484 9.44110813,9.26508979 9.30226089,9.31783355 C9.16341366,9.37057731 9.03357094,9.39694919 8.91284388,9.39694919 L8.90383938,9.39694919 L8.89472371,9.39694919 C8.77399665,9.39694919 8.64426509,9.37057731 8.50530669,9.31783355 C8.36645946,9.26508979 8.21393873,9.18424484 8.04796682,9.07573104 C7.88199491,8.96721724 7.74759434,8.87480758 7.64498746,8.79839398 C7.54238058,8.72219654 7.40342219,8.61195344 7.22833461,8.46809699 C7.05324702,8.32434863 6.94752748,8.23766729 6.91128713,8.20837721 C5.65543671,7.23975104 4.44483116,6.30938571 3.27947045,5.41695697 C2.39180421,4.73604368 1.94802667,3.90241127 1.94802667,2.91616782 C1.94802667,2.8398623 1.97670769,2.77382452 2.03406971,2.71805448 C2.09143174,2.66228443 2.1593546,2.63439941 2.23783831,2.63439941 L15.5699516,2.63439941 C15.618198,2.66077129 15.6604413,2.66812083 15.6967928,2.65644803 C15.7330332,2.64455907 15.7601579,2.66660769 15.7781669,2.72237773 C15.7962871,2.77814778 15.8128509,2.80451965 15.8279696,2.80160145 C15.8430882,2.79868326 15.8522039,2.83532287 15.8552054,2.91173648 C15.8579846,2.988042 15.8595409,3.02641092 15.8595409,3.02641092 L15.8595409,3.14519246 L15.8595409,3.14519246 Z" id="icon-mail" fill="#000000"></path>
    </g>
</svg>
